X: 1783
T: Sislendi Hava...
C: Rifat Bey (Sermüezzin, Miralay)
O: Turkey
F: http://compmusic.upf.edu/node/140
N: hicaz--sarki--curcuna--sislendi_hava--rifat_bey
N: makam= hicaz
N: form= sarki
N: usul= curcuna = 10/8
M: 10/8
L: 1/16
K: C _7/8B ^f ^c 
Q: 1/4=220
%%MIDI tuningsystem comma53
a4 =c'2=b2 a2g2 f2e4f2  | g4 b2a2 g2=f2 e2d4e2  | \
w:  ARANAĞME  |   | 
=f4 a2g2 f2e2 d2c2 B2A2  | 
w:   | 
A3B c2d2 e2f2 g2a4z2  | a4 =c'2=b2 a2g2 f2e4f2  | \
w:   |  ARANAĞME  | 
g4 b2a2 g2=f2 e2d4e2  | 
w:   | 
=f4 a2g2 f2e2 d2c2 B2A2  | A2B2 d2c2 B2B2 A2A4z2  | \
w:   |   | 
d6e4e8-e2  | 
w:  Sis *  len  | 
e6=f4e2 d2c4z2  | d6e4f4g4f2  | a4 g2g2 f2f2 e2g2 f2e2  | \
w:  di  ha va   |  tarf_ ı  çe men  |  zâ *  rı  *  nem_ *  al  | 
e4 =f2e2 d2c2 B2A4z2  | 
w:  dı   SAZ  | 
d6e4e8-e2  | e6=f4e2 d2c4z2  | d6e4f4g4f2  | \
w:  Sis *  len  |  di  ha va   |  tarf_ ı  çe men  | 
a4 g2g2 f2f2 e2g2 f2e2  | 
w:  zâ *  rı  *  nem_ *  al  | 
e4 g2f2 e2f2 g2a4z2  | a8-a2g2 f2e4f2  | \
w:  dı   SAZ  |  Bül bül   | 
g6=f2 e2d2 c2d4z2  | 
w:  yu va *  dan   | 
g4 =f2f2 e2e2 d2c4B2  | A4 B2c4d4c2 B2A2  | \
w:  uç *  tu  *  gü *  lis  |  ta *  nı  gam_ al  | 
A3B c2d2 e2f2 g2a4z2  | 
w:  dı   SAZ  | 
a8-a2g2 f2e4f2  | g6=f2 e2d2 c2d4z2  | \
w:  Bül bül   |  yu va *  dan   | 
g4 =f2f2 e2e2 d2c4B2  | 
w:  uç *  tu  *  gü *  lis  | 
A4 B2c4d4c2 B2A2  | A8-A2f2 ^e2f4z2  | \
w:  ta *  nı  gam_ al  |  dı   SAZ  | 
d6f4f8-f2  | g6a4a8z2  | 
w:  Bağ *  lar   |  bo zu lup   | 
g6a4=b4b4a2  | a4 g2g2 f2f2 e2g2 f2e2  | \
w:  bezm_ i  ve fa   |  şek *  li *  ne  *  gir  | 
e8-e2f2 ^e2f4z2  | d6f4f8-f2  | 
w:  di   SAZ  |  Bağ *  lar   | 
g6a4a8z2  | g6a4=b4b4a2  | a4 g2g2 f2f2 e2g2 f2e2  | \
w:  bo zu lup   |  bezm_ i  ve fa   |  şek *  li *  ne  *  gir  | 
e4 g2f2 e2f2 g2a4z2  | 
w:  di   SAZ  | 
a8-a2g2 f2e4f2  | g6=f2 e2d2 c2d4z2  | \
w:  Bül bül   |  yu va *  dan   | 
g4 =f2f2 e2e2 d2c4B2  | 
w:  uç *  tu  *  gü *  lis  | 
A4 B2c4d4c2 B2A2  | A3B c2d2 e2f2 g2a4z2  | \
w:  ta *  nı  gam_ al  |  dı   SAZ  | 
a8-a2g2 f2e4f2  | 
w:  Bül bül   | 
g6=f2 e2d2 c2d4z2  | g4 =f2f2 e2e2 d2c4B2  | \
w:  yu va *  dan   |  uç *  tu  *  gü *  lis  | 
A4 B2c4d4c2 B2A2  | 
w:  ta *  nı  gam_ al  | 
A4 =f2e2 d2c2 B2A4z2  | |


